flaticon/sport/hockey.svg

<svg xmlns="http://www.w3.org/2000/svg" width="32" height="32" viewBox="0 0 24 24">
    <path d="M 23.816406 17.695312 C 23.597656 17.269531 23.203125 16.988281 22.742188 16.925781 C 22.667969 16.914062 22.59375 16.910156 22.519531 16.910156 L 15.902344 16.910156 C 15.140625 16.90625 14.589844 16.679688 14.066406 16.144531 L 22.703125 2.878906 C 23.039062 2.363281 22.976562 1.699219 22.550781 1.292969 C 22.292969 1.046875 21.9375 0.925781 21.589844 0.960938 C 21.238281 0.992188 20.914062 1.175781 20.710938 1.460938 L 18.582031 4.378906 L 16.058594 7.832031 L 12 13.390625 L 7.78125 7.613281 L 5.921875 5.0625 L 3.292969 1.464844 C 3.085938 1.175781 2.765625 0.992188 2.414062 0.960938 C 2.0625 0.925781 1.710938 1.046875 1.449219 1.292969 C 1.449219 1.296875 1.449219 1.296875 1.449219 1.296875 C 1.027344 1.699219 0.964844 2.363281 1.296875 2.878906 L 9.9375 16.148438 C 9.421875 16.683594 8.878906 16.90625 8.125 16.910156 L 1.507812 16.910156 C 0.875 16.910156 0.425781 17.152344 0.171875 17.632812 C -0.0625 18.078125 -0.0585938 18.636719 0.1875 19.132812 L 0.90625 20.605469 C 1.175781 21.140625 1.539062 21.410156 1.988281 21.410156 L 2.765625 21.410156 C 2.957031 22.34375 3.78125 23.046875 4.769531 23.046875 L 8.863281 23.046875 C 9.988281 23.046875 10.90625 22.128906 10.90625 21 C 10.90625 20.816406 10.875 20.640625 10.828125 20.46875 C 11.289062 20.144531 11.679688 19.753906 11.996094 19.304688 C 12.863281 20.625 14.320312 21.410156 15.898438 21.410156 L 21.855469 21.410156 C 22.339844 21.410156 22.863281 21.070312 23.09375 20.605469 L 23.832031 19.140625 C 24.0625 18.6875 24.054688 18.148438 23.816406 17.695312 Z M 21.375 1.941406 C 21.441406 1.84375 21.546875 1.785156 21.664062 1.773438 C 21.785156 1.761719 21.898438 1.804688 21.988281 1.886719 C 22.125 2.015625 22.136719 2.253906 22.019531 2.433594 L 20.289062 5.09375 L 19.488281 4.527344 Z M 19.003906 5.1875 L 19.839844 5.777344 L 17.992188 8.617188 L 16.976562 7.964844 Z M 16.492188 8.625 L 17.546875 9.300781 L 13.527344 15.476562 L 12.507812 14.082031 Z M 1.984375 2.433594 C 1.867188 2.253906 1.878906 2.019531 2.015625 1.886719 C 2.105469 1.804688 2.214844 1.761719 2.335938 1.773438 C 2.453125 1.785156 2.558594 1.84375 2.628906 1.941406 L 4.328125 4.269531 L 3.570312 4.871094 Z M 4.835938 6.816406 L 4.019531 5.558594 L 4.8125 4.929688 L 6.597656 7.375 L 6.871094 7.753906 L 5.886719 8.425781 Z M 6.078125 17.726562 L 6.351562 18.957031 L 4.769531 18.957031 C 4.667969 18.957031 4.566406 18.964844 4.46875 18.980469 C 4.4375 18.984375 4.410156 18.988281 4.382812 18.996094 C 4.367188 18.996094 4.351562 19 4.335938 19.003906 L 4.054688 17.726562 Z M 3.28125 19.605469 C 3.230469 19.660156 3.183594 19.71875 3.136719 19.78125 C 3.109375 19.820312 3.078125 19.859375 3.054688 19.898438 C 3.007812 19.96875 2.96875 20.042969 2.933594 20.117188 C 2.914062 20.152344 2.894531 20.191406 2.878906 20.230469 C 2.832031 20.339844 2.796875 20.453125 2.773438 20.570312 C 2.769531 20.578125 2.769531 20.582031 2.765625 20.589844 C 2.765625 20.589844 2.765625 20.589844 2.765625 20.59375 L 1.988281 20.59375 C 1.945312 20.59375 1.816406 20.59375 1.640625 20.242188 L 0.921875 18.773438 C 0.792969 18.511719 0.78125 18.230469 0.894531 18.015625 C 0.972656 17.867188 1.105469 17.726562 1.507812 17.726562 L 3.214844 17.726562 L 3.574219 19.347656 C 3.570312 19.351562 3.566406 19.355469 3.5625 19.359375 C 3.5 19.402344 3.445312 19.449219 3.390625 19.5 C 3.351562 19.535156 3.316406 19.570312 3.28125 19.605469 Z M 8.863281 22.226562 L 4.769531 22.226562 C 4.09375 22.226562 3.542969 21.675781 3.542969 21 C 3.542969 20.523438 3.816406 20.117188 4.214844 19.914062 C 4.21875 19.910156 4.21875 19.910156 4.222656 19.910156 C 4.402344 19.820312 4.589844 19.773438 4.769531 19.773438 L 8.863281 19.773438 C 8.933594 19.773438 9.003906 19.78125 9.074219 19.796875 C 9.101562 19.800781 9.128906 19.804688 9.15625 19.8125 C 9.195312 19.824219 9.230469 19.835938 9.269531 19.847656 C 9.40625 19.898438 9.535156 19.96875 9.644531 20.0625 C 9.648438 20.066406 9.652344 20.070312 9.65625 20.074219 C 9.785156 20.1875 9.894531 20.324219 9.96875 20.484375 C 9.972656 20.488281 9.976562 20.492188 9.976562 20.496094 C 10.046875 20.652344 10.089844 20.820312 10.089844 21 C 10.089844 21.679688 9.539062 22.226562 8.863281 22.226562 Z M 11.421875 18.707031 C 11.164062 19.101562 10.84375 19.445312 10.460938 19.734375 C 10.441406 19.710938 10.417969 19.6875 10.394531 19.664062 C 10.335938 19.59375 10.273438 19.53125 10.207031 19.472656 C 10.167969 19.4375 10.128906 19.40625 10.085938 19.371094 C 10.042969 19.339844 10 19.308594 9.953125 19.277344 C 9.878906 19.230469 9.796875 19.1875 9.714844 19.148438 C 9.675781 19.128906 9.636719 19.113281 9.59375 19.097656 C 9.5 19.058594 9.402344 19.027344 9.300781 19.003906 C 9.273438 19 9.25 18.996094 9.226562 18.992188 C 9.105469 18.96875 8.984375 18.957031 8.863281 18.957031 L 7.191406 18.957031 L 6.917969 17.726562 L 8.128906 17.726562 C 9.039062 17.726562 9.757812 17.449219 10.390625 16.847656 L 11.511719 18.566406 Z M 16.714844 20.589844 L 15.898438 20.589844 C 14.589844 20.589844 13.378906 19.9375 12.664062 18.839844 L 12.34375 18.34375 L 10.792969 15.960938 L 6.332031 9.113281 L 7.355469 8.414062 L 11.671875 14.324219 L 13 16.144531 C 13.808594 17.25 14.675781 17.722656 15.898438 17.726562 L 17.351562 17.726562 Z M 19.582031 20.589844 L 17.554688 20.589844 L 18.191406 17.726562 L 20.21875 17.726562 Z M 23.101562 18.773438 L 22.363281 20.238281 C 22.269531 20.421875 22.03125 20.589844 21.855469 20.589844 L 20.417969 20.589844 L 21.054688 17.726562 L 22.519531 17.726562 C 22.558594 17.726562 22.59375 17.730469 22.628906 17.734375 C 22.898438 17.773438 23.035156 17.964844 23.09375 18.074219 C 23.207031 18.292969 23.210938 18.554688 23.101562 18.773438 Z M 23.101562 18.773438"/>
</svg>

<svg xmlns="http://www.w3.org/2000/svg" width="32" height="32" viewBox="0 0 24 24">
    <path d="M23.816 17.695a1.416 1.416 0 0 0-1.074-.77 1.423 1.423 0 0 0-.222-.015h-6.618c-.761-.004-1.312-.23-1.836-.765l8.637-13.266c.336-.516.274-1.18-.152-1.586a1.223 1.223 0 0 0-.961-.332 1.214 1.214 0 0 0-.88.5l-2.128 2.918-2.523 3.453L12 13.391 7.781 7.613l-1.86-2.55-2.628-3.598a1.231 1.231 0 0 0-1.844-.172v.004c-.422.402-.484 1.066-.152 1.582l8.64 13.27c-.515.535-1.058.757-1.812.761H1.508c-.633 0-1.082.242-1.336.723-.234.445-.23 1.004.016 1.5l.718 1.472c.27.536.633.805 1.082.805h.778a2.048 2.048 0 0 0 2.004 1.637h4.093A2.048 2.048 0 0 0 10.906 21c0-.184-.031-.36-.078-.531.461-.324.852-.715 1.168-1.164a4.652 4.652 0 0 0 3.902 2.105h5.957c.485 0 1.008-.34 1.239-.805l.738-1.464c.23-.453.223-.993-.016-1.446zM21.375 1.941a.392.392 0 0 1 .29-.168.416.416 0 0 1 .323.114c.137.129.149.367.032.547l-1.73 2.66-.802-.567zm-2.371 3.247l.836.59-1.848 2.84-1.015-.653zm-2.512 3.437l1.055.676-4.02 6.176-1.02-1.395zM1.984 2.434c-.117-.18-.105-.414.032-.547a.408.408 0 0 1 .613.054l1.7 2.329-.759.601zm2.852 4.382L4.02 5.56l.793-.63 1.785 2.446.273.379-.984.672zm1.242 10.91l.274 1.231H4.77a1.913 1.913 0 0 0-.387.04.196.196 0 0 0-.047.007l-.281-1.277zm-2.797 1.88c-.05.054-.097.113-.144.175-.028.04-.059.078-.082.117-.047.07-.086.145-.121.22a1.713 1.713 0 0 0-.16.453l-.008.019v.004h-.778c-.043 0-.172 0-.347-.352l-.72-1.469c-.128-.261-.14-.543-.026-.757.078-.149.21-.29.613-.29h1.707l.36 1.622-.013.011c-.062.043-.117.09-.171.141-.04.035-.075.07-.11.105zm5.582 2.62H4.77c-.676 0-1.227-.55-1.227-1.226 0-.477.273-.883.672-1.086.004-.004.004-.004.008-.004.18-.09.367-.137.547-.137h4.093c.07 0 .14.008.211.024a.607.607 0 0 1 .082.015l.114.036a1.233 1.233 0 0 1 .707.648c.07.156.113.324.113.504 0 .68-.55 1.227-1.227 1.227zm2.559-3.519a4.069 4.069 0 0 1-.961 1.027 1.098 1.098 0 0 0-.066-.07 1.739 1.739 0 0 0-.188-.191c-.039-.035-.078-.067-.121-.102l-.133-.094a2.312 2.312 0 0 0-.36-.18 1.83 1.83 0 0 0-.292-.093l-.074-.012a1.908 1.908 0 0 0-.364-.035H7.191l-.273-1.23h1.21c.911 0 1.63-.278 2.263-.88l1.12 1.72zm5.293 1.883h-.817a3.846 3.846 0 0 1-3.234-1.75l-.32-.496-1.551-2.383-4.461-6.848 1.023-.699 4.317 5.91L13 16.144c.809 1.106 1.676 1.579 2.898 1.583h1.454zm2.867 0h-2.027l.636-2.863h2.028zm3.52-1.817l-.739 1.465c-.093.184-.332.352-.508.352h-1.437l.637-2.863h1.465a.628.628 0 0 1 .574.348c.113.218.117.48.008.698zm0 0"/>
</svg>
